!!! OTL: Literature114
!!! Chapter: 5
!!! Section: III
!!! Page: 371
!!! Mode: 
!!! Encoder: DJB
**kern
*staff1
*I"Piano
=1-
*clefF4
*k[b-e-a-d-]
*A-:
*M4/4
4r
4r
4E-\
4E-\
=2
4..C/
16E-\
4A-\
4A-\
=3
4E-\
8E-\
8r
6B-\
12An\
6B-\
12c\
=4
4A-\
8E-\
8r
6B-\
12An\
12B-\L
12d-\
12c\J
=5
8.A-\L
32c\LL
32B-\JJJ
8A-\
8r
4E-\
4E-\
=6
4..C/
16E-\
4A-\
4A-\
=7
!!linebreak:original
8.E-\L
32G\LL
32F\JJJ
4E-\
6B-\
12An\
6B-\
12c\
=8
12A-\
[6e-\
12e-\L]
12d-\
12c\J
6B-\
12A-\
12B-\L
12d-\
12c\J
=9
4A-\
6c\
12c\
12d-\L
12c\
12B-\J
6F\
12G\
=10
6F\
12E-\
6c\
12c\
12d-\L
12c\
12B-\J
6F\
12G\
=11
!!linebreak:original
6F\
12E-\
6e-\
12e-\
6dn\
12d\
6d-\
12d-\
=12
12c\L
12Bn\
12c\J
12d-\L
12F\
12B-\J
6A-\
12A-\
12G\L
12F\
12G\J
=13
4A-\
4r
2r
==
*-
